studios/france-tv/thumb.svg

<svg xmlns="http://www.w3.org/2000/svg" xmlns:xlink="http://www.w3.org/1999/xlink" xml:space="preserve" id="svg8" width="1000" height="562" viewBox="0 0 264.583 148.696"><defs id="defs2"><radialGradient xlink:href="#linearGradient847" id="radialGradient849" cx="26.375" cy="97.114" r="132.292" fx="26.375" fy="97.114" gradientTransform="matrix(0 1.15153 -2.00992 0 221.566 -12.968)" gradientUnits="userSpaceOnUse"/><linearGradient id="linearGradient847"><stop id="stop843" offset="0" style="stop-color:#fff;stop-opacity:1"/><stop id="stop845" offset="1" style="stop-color:#ededed;stop-opacity:1"/></linearGradient></defs><g id="layer1"><path id="background" d="M0 0h264.583v148.696H0z" style="opacity:.98;fill:url(#radialGradient849);fill-opacity:1;stroke-width:1.61952"/><g id="logo" transform="translate(39.687 58.351)scale(.04435)"><path id="path484" d="M269.7 141.3c15.8-18.8 40.5-27.7 72.1-27.7 11.9 0 27.7 2 38.5 4.9L400.2 8.9C373.5 2 349.8 0 324.1 0c-65.2 0-115.6 23.7-149.2 56.3s-51.4 79-51.4 156.1v19.8H0v108.7h123.5v370.5h128.4V340.9h148.2V232.2H251.9v-14.8c0-44.5 7-62.3 17.8-76.1" class="st0"/><path id="path486" d="M582.9 280.6v-48.4H459.4v479.2h128.4V410c15.8-28.7 60.3-69.2 116.6-69.2 18.8 0 37.5 2 46.4 4.9l14.8-119.6c-13.8-2-24.7-4-43.5-4-58.2.2-110.6 22.9-139.2 58.5" class="st0"/><path id="path488" d="M1146 270.7c-37.5-30.6-86-48.4-140.3-48.4-130.4 0-235.2 108.7-235.2 250 0 65.2 23.7 124.5 61.3 168 42.5 49.4 109.7 81 180.8 81 48.4 0 93.9-14.8 133.4-48.4v38.5h123.5V232.2H1146Zm-4.9 272.7c-24.7 35.6-67.2 59.3-115.6 59.3-72.1 0-126.5-55.3-126.5-130.4 0-69.2 48.4-131.4 123.5-131.4 49.4 0 91.9 23.7 118.6 59.3z" class="st0"/><path id="path490" d="M1630.4 222.3c-53.4 0-98.8 18.8-135.4 48.4v-38.5h-123.5v479.2H1500V400.2c17.8-24.7 62.2-59.3 116.6-59.3 29.6 0 55.3 9.9 72.1 26.7 17.8 17.8 28.7 42.5 28.7 89.9v253.9h128.4v-244c0-82-17.8-130.4-49.4-168-39.5-47.5-99.8-77.1-166-77.1" class="st0"/><path id="path492" d="M2179 602.7c-78.1 0-132.4-55.3-132.4-130.4 0-73.1 55.3-131.4 129.4-131.4 46.4 0 85 23.7 110.7 57.3l90.9-80c-44.5-57.3-118.6-95.8-201.6-95.8-146.2 0-257.9 110.7-257.9 250 0 138.3 108.7 249 256.9 249 89.9 0 161.1-32.6 217.4-107.7l-98.8-74.1c-20.7 31.5-62.2 63.1-114.6 63.1" class="st0"/><path id="path494" d="M2651.9 222.3c-142.3 0-233.2 116.6-233.2 250 0 150.2 107.7 249 251 249 74.1 0 150.2-30.6 196.6-86l-73.1-73.1c-22.7 24.7-66.2 55.3-120.5 55.3-68.2 0-122.5-46.4-129.4-113.6h332c2-10.9 3-23.7 3-36.6-.1-133.3-94-245-226.4-245M2549.1 410c5.9-43.5 49.4-84 102.8-84 52.4 0 90.9 41.5 94.9 84z" class="st0"/><path id="path496" d="M3123.4 340.8c-72.3 0-131.5 59.2-131.5 131.5s59.2 131.5 131.5 131.5 131.5-59.2 131.5-131.5-59.2-131.5-131.5-131.5" class="st0"/><path id="path498" d="m4042.9 232.2-131.4 292.5-131.4-292.5h-236.9V98.8h-128.4v133.4H3288v108.7h126.8v168c0 68.2 10.9 110.7 35.6 143.3 32.6 43.5 88.9 69.2 166 69.2 24.7 0 63.2-4 80-9.9l-19.8-108.7c-8.9 2-33.6 4.9-52.4 4.9-31.6 0-52.4-8.9-65.2-23.7-10.9-12.8-15.8-30.6-15.8-60.3V340.9h153.5L3867 711.4h88.9l220.3-479.2z" class="st0"/></g><path id="border" d="M40 25a15 16 0 0 0-15 16v480a15 16 0 0 0 15 16h920a15 16 0 0 0 15-16V41a15 16 0 0 0-15-16zm12.5 12.5h895a15 16 0 0 1 15 16v455a15 16 0 0 1-15 16h-895a15 16 0 0 1-15-16v-455a15 16 0 0 1 15-16" style="fill:#1d1d1e;fill-opacity:1;opacity:.98;stroke-width:85.9894" transform="scale(.26458)"/></g><style id="style482" type="text/css">.st0{fill:#1d1d1e}</style></svg>

<?xml version="1.0" encoding="UTF-8" standalone="no"?>
<svg
   width="1000"
   height="562"
   viewBox="0 0 264.58333 148.69584"
   version="1.1"
   id="svg8"
   inkscape:version="1.2 (dc2aedaf03, 2022-05-15)"
   sodipodi:docname="thumb.svg"
   xml:space="preserve"
   xmlns:inkscape="http://www.inkscape.org/namespaces/inkscape"
   xmlns:sodipodi="http://sodipodi.sourceforge.net/DTD/sodipodi-0.dtd"
   xmlns:xlink="http://www.w3.org/1999/xlink"
   xmlns="http://www.w3.org/2000/svg"
   xmlns:svg="http://www.w3.org/2000/svg"
   xmlns:rdf="http://www.w3.org/1999/02/22-rdf-syntax-ns#"
   xmlns:cc="http://creativecommons.org/ns#"
   xmlns:dc="http://purl.org/dc/elements/1.1/"><defs
     id="defs2"><inkscape:path-effect
       effect="fillet_chamfer"
       id="path-effect2883"
       is_visible="true"
       lpeversion="1"
       satellites_param="F,0,0,1,0,5.2916667,0,1 @ F,0,0,1,0,5.2916667,0,1 @ F,0,0,1,0,5.2916667,0,1 @ F,0,0,1,0,5.2916667,0,1"
       unit="px"
       method="auto"
       mode="F"
       radius="20"
       chamfer_steps="1"
       flexible="false"
       use_knot_distance="true"
       apply_no_radius="true"
       apply_with_radius="true"
       only_selected="false"
       hide_knots="false"
       nodesatellites_param="F,0,0,1,0,5.2916667,0,1 @ F,0,0,1,0,5.2916667,0,1 @ F,0,0,1,0,5.2916667,0,1 @ F,0,0,1,0,5.2916667,0,1" /><inkscape:path-effect
       effect="fillet_chamfer"
       id="path-effect2864"
       is_visible="true"
       lpeversion="1"
       satellites_param="F,0,0,1,0,5.2916667,0,1 @ F,0,0,1,0,5.2916667,0,1 @ F,0,0,1,0,5.2916667,0,1 @ F,0,0,1,0,5.2916667,0,1"
       unit="px"
       method="auto"
       mode="F"
       radius="20"
       chamfer_steps="1"
       flexible="false"
       use_knot_distance="true"
       apply_no_radius="true"
       apply_with_radius="true"
       only_selected="false"
       hide_knots="false"
       nodesatellites_param="F,0,0,1,0,5.2916667,0,1 @ F,0,0,1,0,5.2916667,0,1 @ F,0,0,1,0,5.2916667,0,1 @ F,0,0,1,0,5.2916667,0,1" /><inkscape:path-effect
       effect="fillet_chamfer"
       id="path-effect2862"
       is_visible="true"
       lpeversion="1"
       satellites_param="F,0,0,1,0,0,0,1 @ F,0,0,1,0,0,0,1 @ F,0,0,1,0,0,0,1 @ F,0,0,1,0,0,0,1"
       unit="px"
       method="auto"
       mode="F"
       radius="0"
       chamfer_steps="1"
       flexible="false"
       use_knot_distance="true"
       apply_no_radius="true"
       apply_with_radius="true"
       only_selected="false"
       hide_knots="false"
       nodesatellites_param="F,0,0,1,0,0,0,1 @ F,0,0,1,0,0,0,1 @ F,0,0,1,0,0,0,1 @ F,0,0,1,0,0,0,1" /><inkscape:path-effect
       effect="fillet_chamfer"
       id="path-effect1088"
       is_visible="true"
       lpeversion="1"
       satellites_param="F,0,0,1,0,5.2916667,0,1 @ F,0,0,1,0,5.2916667,0,1 @ F,0,0,1,0,5.2916667,0,1 @ F,0,0,1,0,5.2916667,0,1"
       unit="px"
       method="auto"
       mode="F"
       radius="20"
       chamfer_steps="1"
       flexible="false"
       use_knot_distance="true"
       apply_no_radius="true"
       apply_with_radius="true"
       only_selected="false"
       hide_knots="false"
       nodesatellites_param="F,0,0,1,0,5.2916667,0,1 @ F,0,0,1,0,5.2916667,0,1 @ F,0,0,1,0,5.2916667,0,1 @ F,0,0,1,0,5.2916667,0,1" /><inkscape:path-effect
       effect="fillet_chamfer"
       id="path-effect1308"
       is_visible="true"
       lpeversion="1"
       satellites_param="F,1,0,1,0,0.04,0,1 @ F,1,0,1,0,0.04,0,1 @ F,1,0,1,0,0.04,0,1 @ F,1,0,1,0,0.04,0,1"
       unit="px"
       method="auto"
       mode="F"
       radius="4"
       chamfer_steps="1"
       flexible="true"
       use_knot_distance="true"
       apply_no_radius="true"
       apply_with_radius="true"
       only_selected="false"
       hide_knots="false"
       nodesatellites_param="F,1,0,1,0,0.04,0,1 @ F,1,0,1,0,0.04,0,1 @ F,1,0,1,0,0.04,0,1 @ F,1,0,1,0,0.04,0,1" /><inkscape:path-effect
       effect="fillet_chamfer"
       id="path-effect1306"
       is_visible="true"
       lpeversion="1"
       satellites_param="F,1,0,1,0,0.03,0,1 @ F,1,0,1,0,0.03,0,1 @ F,1,0,1,0,0.03,0,1 @ F,1,0,1,0,0.03,0,1"
       unit="px"
       method="auto"
       mode="F"
       radius="3"
       chamfer_steps="1"
       flexible="true"
       use_knot_distance="true"
       apply_no_radius="true"
       apply_with_radius="true"
       only_selected="false"
       hide_knots="false"
       nodesatellites_param="F,1,0,1,0,0.03,0,1 @ F,1,0,1,0,0.03,0,1 @ F,1,0,1,0,0.03,0,1 @ F,1,0,1,0,0.03,0,1" /><inkscape:path-effect
       effect="fillet_chamfer"
       id="path-effect1210"
       is_visible="true"
       lpeversion="1"
       satellites_param="F,1,0,1,0,0.02,0,1 @ F,1,0,1,0,0.02,0,1 @ F,1,0,1,0,0.02,0,1 @ F,1,0,1,0,0.02,0,1"
       unit="px"
       method="auto"
       mode="F"
       radius="2"
       chamfer_steps="1"
       flexible="true"
       use_knot_distance="true"
       apply_no_radius="true"
       apply_with_radius="true"
       only_selected="false"
       hide_knots="false"
       nodesatellites_param="F,1,0,1,0,0.02,0,1 @ F,1,0,1,0,0.02,0,1 @ F,1,0,1,0,0.02,0,1 @ F,1,0,1,0,0.02,0,1" /><inkscape:path-effect
       effect="fillet_chamfer"
       id="path-effect1191"
       is_visible="true"
       lpeversion="1"
       satellites_param="F,1,0,1,0,0.03,0,1 @ F,1,0,1,0,0.03,0,1 @ F,1,0,1,0,0.03,0,1 @ F,1,0,1,0,0.03,0,1"
       unit="px"
       method="auto"
       mode="F"
       radius="3"
       chamfer_steps="1"
       flexible="true"
       use_knot_distance="true"
       apply_no_radius="true"
       apply_with_radius="true"
       only_selected="false"
       hide_knots="false"
       nodesatellites_param="F,1,0,1,0,0.03,0,1 @ F,1,0,1,0,0.03,0,1 @ F,1,0,1,0,0.03,0,1 @ F,1,0,1,0,0.03,0,1" /><linearGradient
       inkscape:collect="always"
       id="linearGradient847"><stop
         style="stop-color:#ffffff;stop-opacity:1;"
         offset="0"
         id="stop843" /><stop
         style="stop-color:#ededed;stop-opacity:1;"
         offset="1"
         id="stop845" /></linearGradient><radialGradient
       inkscape:collect="always"
       xlink:href="#linearGradient847"
       id="radialGradient849"
       cx="26.375103"
       cy="97.113945"
       fx="26.375103"
       fy="97.113945"
       r="132.29167"
       gradientTransform="matrix(0,1.1515333,-2.0099162,0,221.56598,-12.967733)"
       gradientUnits="userSpaceOnUse" /></defs><sodipodi:namedview
     id="base"
     pagecolor="#757575"
     bordercolor="#666666"
     borderopacity="1.0"
     inkscape:pageopacity="1"
     inkscape:pageshadow="2"
     inkscape:zoom="1"
     inkscape:cx="337.5"
     inkscape:cy="286"
     inkscape:document-units="mm"
     inkscape:current-layer="layer1"
     inkscape:document-rotation="0"
     showgrid="false"
     units="px"
     inkscape:showpageshadow="false"
     inkscape:pagecheckerboard="false"
     inkscape:lockguides="true"
     inkscape:window-width="1920"
     inkscape:window-height="1017"
     inkscape:window-x="-8"
     inkscape:window-y="-8"
     inkscape:window-maximized="1"
     showguides="true"
     inkscape:guide-bbox="true"
     inkscape:deskcolor="#757575"><sodipodi:guide
       position="0,148.69584"
       orientation="0,1000"
       inkscape:locked="true"
       id="guide1270" /><sodipodi:guide
       position="264.58334,148.69584"
       orientation="562,0"
       inkscape:locked="true"
       id="guide1272" /><sodipodi:guide
       position="264.58334,0"
       orientation="0,-1000"
       inkscape:locked="true"
       id="guide1274" /><sodipodi:guide
       position="0,0"
       orientation="-562,0"
       inkscape:locked="true"
       id="guide1276" /><sodipodi:guide
       position="21.201605,127.26459"
       orientation="0,1"
       id="guide2557"
       inkscape:label=""
       inkscape:locked="true"
       inkscape:color="rgb(0,0,255)" /><sodipodi:guide
       position="-33.82728,21.43125"
       orientation="0,1"
       id="guide2559"
       inkscape:label=""
       inkscape:locked="true"
       inkscape:color="rgb(0,0,255)" /><sodipodi:guide
       position="39.687501,148.69584"
       orientation="-1,0"
       id="guide2561"
       inkscape:label=""
       inkscape:locked="true"
       inkscape:color="rgb(0,0,255)" /><sodipodi:guide
       position="224.89584,148.69584"
       orientation="-1,0"
       id="guide2563"
       inkscape:label=""
       inkscape:locked="true"
       inkscape:color="rgb(0,0,255)" /></sodipodi:namedview><metadata
     id="metadata5"><rdf:RDF><cc:Work
         rdf:about=""><dc:format>image/svg+xml</dc:format><dc:type
           rdf:resource="http://purl.org/dc/dcmitype/StillImage" /></cc:Work></rdf:RDF></metadata><g
     inkscape:label="Layer 1"
     inkscape:groupmode="layer"
     id="layer1"><rect
       style="opacity:0.98;fill:url(#radialGradient849);fill-opacity:1;stroke-width:1.61952"
       id="background"
       width="264.58334"
       height="148.69583"
       x="-5.0862632e-06"
       y="-4.7961635e-14" /><g
       id="logo"
       transform="matrix(0.04434853,0,0,0.04434853,39.687495,58.3514)">
	<path
   class="st0"
   d="m 269.7,141.3 c 15.8,-18.8 40.5,-27.7 72.1,-27.7 11.9,0 27.7,2 38.5,4.9 L 400.2,8.9 C 373.5,2 349.8,0 324.1,0 258.9,0 208.5,23.7 174.9,56.3 c -33.6,32.6 -51.4,79 -51.4,156.1 v 19.8 H 0 V 340.9 H 123.5 V 711.4 H 251.9 V 340.9 H 400.1 V 232.2 H 251.9 v -14.8 c 0,-44.5 7,-62.3 17.8,-76.1 z"
   id="path484" />
	<path
   class="st0"
   d="M 582.9,280.6 V 232.2 H 459.4 V 711.4 H 587.8 V 410 c 15.8,-28.7 60.3,-69.2 116.6,-69.2 18.8,0 37.5,2 46.4,4.9 l 14.8,-119.6 c -13.8,-2 -24.7,-4 -43.5,-4 -58.2,0.2 -110.6,22.9 -139.2,58.5 z"
   id="path486" />
	<path
   class="st0"
   d="m 1146,270.7 c -37.5,-30.6 -86,-48.4 -140.3,-48.4 -130.4,0 -235.2,108.7 -235.2,250 0,65.2 23.7,124.5 61.3,168 42.5,49.4 109.7,81 180.8,81 48.4,0 93.9,-14.8 133.4,-48.4 v 38.5 h 123.5 V 232.2 H 1146 Z m -4.9,272.7 c -24.7,35.6 -67.2,59.3 -115.6,59.3 -72.1,0 -126.5,-55.3 -126.5,-130.4 0,-69.2 48.4,-131.4 123.5,-131.4 49.4,0 91.9,23.7 118.6,59.3 z"
   id="path488" />
	<path
   class="st0"
   d="m 1630.4,222.3 c -53.4,0 -98.8,18.8 -135.4,48.4 V 232.2 H 1371.5 V 711.4 H 1500 V 400.2 c 17.8,-24.7 62.2,-59.3 116.6,-59.3 29.6,0 55.3,9.9 72.1,26.7 17.8,17.8 28.7,42.5 28.7,89.9 v 253.9 h 128.4 v -244 c 0,-82 -17.8,-130.4 -49.4,-168 -39.5,-47.5 -99.8,-77.1 -166,-77.1 z"
   id="path490" />
	<path
   class="st0"
   d="m 2179,602.7 c -78.1,0 -132.4,-55.3 -132.4,-130.4 0,-73.1 55.3,-131.4 129.4,-131.4 46.4,0 85,23.7 110.7,57.3 l 90.9,-80 C 2333.1,260.9 2259,222.4 2176,222.4 c -146.2,0 -257.9,110.7 -257.9,250 0,138.3 108.7,249 256.9,249 89.9,0 161.1,-32.6 217.4,-107.7 l -98.8,-74.1 c -20.7,31.5 -62.2,63.1 -114.6,63.1 z"
   id="path492" />
	<path
   class="st0"
   d="m 2651.9,222.3 c -142.3,0 -233.2,116.6 -233.2,250 0,150.2 107.7,249 251,249 74.1,0 150.2,-30.6 196.6,-86 l -73.1,-73.1 c -22.7,24.7 -66.2,55.3 -120.5,55.3 -68.2,0 -122.5,-46.4 -129.4,-113.6 h 332 c 2,-10.9 3,-23.7 3,-36.6 -0.1,-133.3 -94,-245 -226.4,-245 z M 2549.1,410 c 5.9,-43.5 49.4,-84 102.8,-84 52.4,0 90.9,41.5 94.9,84 z"
   id="path494" />
	<path
   class="st0"
   d="m 3123.4,340.8 c -72.3,0 -131.5,59.2 -131.5,131.5 0,72.3 59.2,131.5 131.5,131.5 72.3,0 131.5,-59.2 131.5,-131.5 0,-72.3 -59.2,-131.5 -131.5,-131.5 z"
   id="path496" />
	<path
   class="st0"
   d="M 4042.9,232.2 3911.5,524.7 3780.1,232.2 H 3543.2 V 98.8 H 3414.8 V 232.2 H 3288 v 108.7 h 126.8 v 168 c 0,68.2 10.9,110.7 35.6,143.3 32.6,43.5 88.9,69.2 166,69.2 24.7,0 63.2,-4 80,-9.9 l -19.8,-108.7 c -8.9,2 -33.6,4.9 -52.4,4.9 -31.6,0 -52.4,-8.9 -65.2,-23.7 -10.9,-12.8 -15.8,-30.6 -15.8,-60.3 V 340.9 h 153.5 L 3867,711.4 h 88.9 l 220.3,-479.2 z"
   id="path498" />
</g><path
       id="border"
       style="fill:#1d1d1e;fill-opacity:1;opacity:0.98;stroke-width:85.9894"
       d="M 40 25 A 15 16 0 0 0 25 41 L 25 521 A 15 16 0 0 0 40 537 L 960 537 A 15 16 0 0 0 975 521 L 975 41 A 15 16 0 0 0 960 25 L 40 25 z M 52.5 37.5 L 947.5 37.5 A 15 16 0 0 1 962.5 53.5 L 962.5 508.5 A 15 16 0 0 1 947.5 524.5 L 52.5 524.5 A 15 16 0 0 1 37.5 508.5 L 37.5 53.5 A 15 16 0 0 1 52.5 37.5 z "
       transform="scale(0.26458333)" /></g><style
     type="text/css"
     id="style482">
	.st0{fill:#1D1D1E;}
</style></svg>
